X:1
T:[ID 1-139a]
T:[ID 1-139a]
T:Bezeichnung standardisiert: Menuett Menuet 1.
T:Urheber unbekannt Datum in der hier transkribierten schriftlichen Quelle: vermutlich vor 1767
C:Urheber unbekannt
C:Datum in der hier transkribierten schriftlichen Quelle: vermutlich vor 1767
L:1/8
M:3/4
K:D
V:1 treble 
V:1
 D2 F2 A2 | d3 efg | a4 fa |{a} g2 eg f2 | A4 FA |{A} G2 EG F2 | Aa g2 f2 |{g} f2 e4 :: F4{fg} a2 | %9
 a2 fa g2 | A4{ef} g2 | g2 eg f2 | D2 FDFA | d2 fdfa | (3bag f2 e2 |{f} e2 d4 :| %16

